X:148
T:Masterpiece of lovesongs - Nankivel
%%VWML:SBG-1-2-220-0
F:http://www.vwml.org/record/SBG/1/2/220
Z:Original Sibelius transcriptions by M. & S. Graebe
M:4/4
I:linebreak $
K:A
V:1 treble nm="P1"
V:1
 E | A B c B | A G F E | A F E D | C3 C | A,/B,/ C/ D/ E3/2 F/ | C D E E |$ B B B3/2 A/ | G3 A | %9
 G B E G/A/ | B3/2 c/ d e/>d/ | c A A G | F3 F/G/ | A E E3/2 D/ |$ C3/2 B,/ A, E | %15
 B3/2 B/ B3/2 A/ | A/G/ z2 E | A B c d | e/ d3/2 c A | c/B/ A A G | A4 | %21
T:Masterpiece of lovesongs - Fone
F:http://www.vwml.org/record/SBG/1/2/220
Z:Original Sibelius transcriptions by M. & S. Graebe
M:4/4
I:linebreak $
K:Eb
V:1 treble nm="P1"
V:1
 B | E G B c/d/ | e d/c/ B B | G A c B/A/ | F3 B G/4F/4 | E G B e |$ f2 d e | d B d- c | B3 | %9
 f3/2 d/ B A | G/B/ e e3/2 d/ |$ c B/G/ E/F/4G/4 A/F/ | E2 D (3B/c/d/ | e3/2 d/ B G/E/ | %14
 G (3F/E/F/ E2 | %15
